X: 30960
T: Oyster Catcher And The Actress, The
R: hornpipe
M: 4/4
K: Eminor
Beef gfed|B2 gf edBA|G3A BABd|(3efg fg edBd|
edef gfed|(3Bcd gf edBA|G3 A BABd|(3efg fd e4:|
Beef gfga|(3bag af g2 fg|ecdB cAAB|ceaf gfed|
(3Bcd ef gfga|(3bag af g2 fg|ecdB cAAB|cgfd e4:|

